X:2340
T:Butchers of Droitwich
S:Andy Hornby
R:Other
O:England
N:Oct 94
M:C
C:Andy Hornby
A:Lancaster
K:Dm
A2|\
d3A GFEF|D6 A2|d3e fedf|a6 ga|\
b3a gefg|a3g fdef|
|1 g3f ed^cd|e6 :|2 gfed ^cdef|d4-d ||\
|:D FA|\
B3d- dBAG|A3d- dAGF|
EFGA BAGB|A4- AFGA|\
B3d- dBAG|A3d- dAGF|EFGB AGFE |1\
D4- D:|2 D6 ||
W:Copyright Andy Hornby


